X:1
T:Title
%%score { 1 | ( 2 3 ) }
L:1/8
M:3/4
K:A
V:1 treble nm="Grand Piano"
V:2 bass 
V:3 bass 
V:1
 z2 z2[Q:1/4=90] [CE][CE] | [=C^D]2 [^CE]2 [CA][CG] | G2 F2 FF | [^DF]2 [DB]2 [DB][DF] | %4
[M:2/4] A2 G2 |[M:1/4] [CE][CE] |[M:3/4] [=C^D]2 [^CE]2 [CA][CG] | [DG]2 [DF]2 [EF][EF] | %8
 [Fe]2 [Fd]2 [Ec][DB] |[M:2/4] [CA]4 |[M:1/4] [Ec][Ec] |[M:3/4] [^Ec]2 [EG]2 [Ec][EB] | AG F2 BB | %13
 [^DB]2 [B,DF]2 [CDA][B,DG] |[M:5/8] [G,E]-[G,E]- [G,E]3 |[M:1/4] [CE][CE] | %16
[M:3/4] [=C^D]2 [^CE]2 [CA][CG] | [DG]2 [DF]2 [EF][EF] | [Fe]2 [Fd]2 [Ec][DB] |[M:6/4] .[CA]6 z6 |] %20
V:2
 z2 z2 [A,,A,][A,,A,] | [A,,A,]2 [A,,A,]2 [A,,A,][A,,A,] | [D,A,D]2 [D,A,D]2 [D,A,D][D,A,D] | %3
 [B,,A,]2 [B,,A,]2 [B,,F,][B,,B,] |[M:2/4] [E,B,D]4 |[M:1/4] [A,,A,][A,,A,] | %6
[M:3/4] [A,,A,]2 [A,,A,]2 [A,,A,][A,,A,] | [D,A,]2 [D,A,]2 [C,^A,][C,A,] | %8
 [B,,B,]2 [B,,B,]2 [E,A,][E,G,] |[M:2/4] [A,,A,]4 |[M:1/4] [A,,A,][A,,A,] | %11
[M:3/4] [C,G,]2 [C,C]2 [C,C][C,C] | .C2 z2 z2 | [B,,A,]2 B,,2 B,,B,, |[M:5/8] z2 D3 | %15
[M:1/4] [A,,A,][A,,A,] |[M:3/4] [A,,A,]2 [A,,A,]2 [A,,A,][A,,A,] | [D,A,]2 [D,A,]2 [C,^A,][C,A,] | %18
 [B,,B,]2 [B,,B,]2 [E,A,][E,G,] |[M:6/4] .[A,,A,]6 z6 |] %20
V:3
 x6 | x6 | x6 | x6 |[M:2/4] x4 |[M:1/4] x2 |[M:3/4] x6 | x6 | x6 |[M:2/4] x4 |[M:1/4] x2 | %11
[M:3/4] x6 | [F,F]-[F,B,F] [F,A,]2 [F,A,^D][F,A,D] | x6 |[M:5/8] E,-E,- E,3 |[M:1/4] x2 | %16
[M:3/4] x6 | x6 | x6 |[M:6/4] x12 |] %20

